svg/uf0114-finisher.svg

<svg height="960" style="" width="1048" xmlns="http://www.w3.org/2000/svg"><path d="m521.0063.00264471a403.86401 380.69148 0 00-400.87987 380.69391529 403.86401 380.69148 0 00.51318 18.88587 105.10396 105.10396 0 00-.51318 10.05878v266.48914a105.10396 105.10396 0 00105.10395 105.10395h40.57724v108.69639a70.069294 70.069294 0 0070.0693 70.06931h22.61514v-125.80315h33.08447v125.80315h66.20318v-125.80315h33.11869v125.80315h66.20318v-125.80315h33.11869v125.80315h66.20318v-125.80315h33.08449v125.80315h22.61514a70.069294 70.069294 0 0070.0693-70.06931v-108.69639h40.57723a105.10396 105.10396 0 00105.10396-105.10395v-266.48914a105.10396 105.10396 0 00-.51317-10.19562 403.86401 380.69148 0 00.51317-18.74903 403.86401 380.69148 0 00-403.85647-380.69391529 403.86401 380.69148 0 00-3.0108 0z" style="stroke-width:10.6667"/></svg>

<svg xmlns="http://www.w3.org/2000/svg" width="1048" height="960">
    <path d="M521.006.003a403.864 380.691 0 0 0-400.88 380.694 403.864 380.691 0 0 0 .514 18.885 105 105 0 0 0-.514 10.06V676.13A105.104 105.104 0 0 0 225.23 781.234h40.578v108.697A70.07 70.07 0 0 0 335.877 960h22.615V834.197h33.085V960h66.203V834.197h33.118V960h66.204V834.197h33.118V960h66.203V834.197h33.085V960h22.615a70.07 70.07 0 0 0 70.07-70.07V781.235h40.577A105.104 105.104 0 0 0 927.874 676.13V409.641a105 105 0 0 0-.514-10.195 403.864 380.691 0 0 0 .514-18.75A403.864 380.691 0 0 0 524.017.004a403.864 380.691 0 0 0-3.01 0" style="stroke-width:10.6667"/>
</svg>
